;FLAVOR:Marlin
;TIME:18376
;Filament used: 14.4101m
;Layer height: 0.3
;MINX:-101.09
;MINY:-61.15
;MINZ:0.3
;MAXX:101.089
;MAXY:61.135
;MAXZ:6
;MKSPREVIEWPROCESSED
; Postprocessed by [MKS WiFi plugin](https://github.com/Jeredian/mks-wifi-plugin)
; simage=0
; gimage=0
;Generated with Cura_SteamEngine 4.13.1
M140 S60
M105
M190 S60
M104 S200
M105
M109 S200
M82 ;absolute extrusion mode
G28 ;Home
G1 Z15.0 F6000 ;Move the platform down 15mm
;Prime the extruder
G92 E0
G1 F200 E3
G92 E0
M420 S1
G92 E0
G92 E0
G1 F1500 E-6.5
;LAYER_COUNT:20
;LAYER:0
M107
G0 F3600 X-23.218 Y43.127 Z0.3
;TYPE:SKIRT
G1 F1500 E0
G1 F900 X-25.625 Y41.829 E0.13643
G1 X-28.041 Y40.612 E0.2714
G1 X-30.529 Y39.446 E0.40848
G1 X-33.001 Y38.374 E0.5429
G1 X-35.549 Y37.351 E0.67989
G1 X-38.103 Y36.409 E0.8157
G1 X-40.687 Y35.539 E0.95173
G1 X-43.315 Y34.735 E1.08884
G1 X-45.952 Y34.01 E1.22528
G1 X-48.12 Y33.473 E1.33671
G1 X-48.906 Y33.262 E1.37731
G1 X-49.577 Y33.063 E1.41223
G1 X-50.365 Y32.805 E1.45359
G1 X-50.467 Y32.77 E1.45897
G1 X-51.319 Y32.459 E1.50422
G1 X-52.001 Y32.187 E1.54086
G1 X-52.873 Y31.81 E1.58825
G1 X-53.543 Y31.495 E1.62519
G1 X-54.36 Y31.082 E1.67086
G1 X-54.906 Y30.788 E1.7018
G1 X-55.009 Y30.73 E1.7077
G1 X-55.733 Y30.309 E1.74948
G1 X-56.384 Y29.906 E1.78768
G1 X-56.472 Y29.85 E1.79288
G1 X-57.231 Y29.346 E1.83834
G1 X-57.801 Y28.943 E1.87316
G1 X-58.578 Y28.359 E1.92166
G1 X-59.047 Y27.985 E1.95158
G1 X-59.78 Y27.366 E1.99945
G1 X-59.863 Y27.294 E2.00493
G1 X-60.448 Y26.766 E2.04425
G1 X-61.112 Y26.13 E2.09012
G1 X-61.507 Y25.73 E2.11816
G1 X-62.174 Y25.016 E2.16691
G1 X-63.163 Y23.893 E2.24157
G1 X-63.889 Y23.04 E2.29745
G1 X-65.736 Y20.991 E2.43508
G1 X-67.615 Y19.021 E2.5709
G1 X-69.535 Y17.121 E2.70566
G1 X-71.541 Y15.242 E2.84279
G1 X-73.584 Y13.435 E2.97886
G1 X-75.675 Y11.688 E3.1148
G1 X-77.808 Y10.006 E3.25032
G1 X-80.004 Y8.375 E3.38679
G1 X-82.245 Y6.806 E3.52328
G1 X-84.101 Y5.582 E3.6342
G1 X-84.985 Y5.002 E3.68694
G1 X-85.685 Y4.526 E3.72918
G1 X-86.183 Y4.169 E3.75975
G1 X-86.528 Y3.915 E3.78112
G1 X-87.222 Y3.389 E3.82456
G1 X-87.737 Y2.976 E3.8575
G1 X-87.99 Y2.769 E3.87381
G1 X-88.731 Y2.143 E3.9222
G1 X-89.119 Y1.796 E3.94817
G1 X-89.44 Y1.504 E3.96982
G1 X-90.103 Y0.88 E4.01525
G1 X-90.534 Y0.454 E4.04548
G1 X-90.812 Y0.173 E4.0652
G1 X-91.447 Y-.491 E4.11104
G1 X-91.823 Y-.903 E4.13886
G1 X-92.108 Y-1.226 E4.16036
G1 X-92.722 Y-1.94 E4.20734
G1 X-93.043 Y-2.332 E4.23261
G1 X-93.347 Y-2.714 E4.25697
G1 X-93.858 Y-3.375 E4.29865
G1 X-94.266 Y-3.933 E4.33314
G1 X-94.449 Y-4.189 E4.34884
G1 X-95.008 Y-4.995 E4.39778
G1 X-95.295 Y-5.434 E4.42394
G1 X-95.543 Y-5.827 E4.44713
G1 X-95.998 Y-6.563 E4.4903
G1 X-96.294 Y-7.073 E4.51971
G1 X-96.531 Y-7.494 E4.54382
G1 X-96.927 Y-8.22 E4.58508
G1 X-97.202 Y-8.755 E4.61509
G1 X-97.4 Y-9.155 E4.63735
G1 X-97.744 Y-9.87 E4.67694
G1 X-98 Y-10.44 E4.70811
G1 X-98.202 Y-10.905 E4.73341
G1 X-98.486 Y-11.585 E4.77017
G1 X-98.748 Y-12.259 E4.80625
G1 X-98.888 Y-12.638 E4.82641
G1 X-99.183 Y-13.469 E4.8704
G1 X-99.379 Y-14.07 E4.90194
G1 X-99.498 Y-14.452 E4.9219
G1 X-99.755 Y-15.318 E4.96697
G1 X-99.89 Y-15.822 E4.993
G1 X-100.008 Y-16.281 E5.01664
G1 X-100.199 Y-17.073 E5.05729
G1 X-100.34 Y-17.725 E5.09057
G1 X-100.422 Y-18.143 E5.11182
G1 X-100.58 Y-18.995 E5.15505
G1 X-100.682 Y-19.64 E5.18763
G1 X-100.738 Y-20.028 E5.20719
G1 X-100.855 Y-20.926 E5.25237
G1 X-100.911 Y-21.463 E5.2793
G1 X-100.95 Y-21.879 E5.30015
G1 X-101.021 Y-22.795 E5.34599
G1 X-101.055 Y-23.441 E5.37826
G1 X-101.067 Y-23.78 E5.39518
G1 X-101.09 Y-24.722 E5.44219
G1 X-101.09 Y-25.282 E5.47013
G1 X-101.084 Y-25.72 E5.49199
G1 X-101.057 Y-26.645 E5.53815
G1 X-101.028 Y-27.158 E5.56379
G1 X-100.996 Y-27.642 E5.58799
G1 X-100.925 Y-28.516 E5.63174
G1 X-100.872 Y-29.016 E5.65682
G1 X-100.809 Y-29.538 E5.68305
G1 X-100.691 Y-30.413 E5.7271
G1 X-100.607 Y-30.935 E5.75348
G1 X-100.52 Y-31.436 E5.77885
G1 X-100.357 Y-32.297 E5.82257
G1 X-100.251 Y-32.789 E5.84768
G1 X-100.126 Y-33.339 E5.87582
G1 X-99.937 Y-34.107 E5.91527
G1 X-99.782 Y-34.682 E5.94499
G1 X-99.66 Y-35.106 E5.967
G1 X-99.389 Y-36.005 E6.01384
G1 X-99.086 Y-36.907 E6.06131
G1 X-98.769 Y-37.789 E6.10807
G1 X-98.575 Y-38.289 E6.13483
G1 X-98.414 Y-38.691 E6.15643
G1 X-98.085 Y-39.474 E6.19881
G1 X-97.833 Y-40.033 E6.2294
G1 X-97.612 Y-40.508 E6.25554
G1 X-97.287 Y-41.183 E6.29291
G1 X-97.009 Y-41.723 E6.32321
G1 X-96.777 Y-42.158 E6.34781
G1 X-96.35 Y-42.932 E6.39191
G1 X-96.049 Y-43.447 E6.42167
G1 X-95.817 Y-43.831 E6.44405
G1 X-95.346 Y-44.588 E6.48853
G1 X-95.064 Y-45.016 E6.5141
G1 X-94.815 Y-45.388 E6.53644
G1 X-94.288 Y-46.141 E6.58229
G1 X-93.913 Y-46.65 E6.61383
G1 X-93.66 Y-46.984 E6.63474
G1 X-93.135 Y-47.656 E6.67728
G1 X-92.781 Y-48.088 E6.70515
G1 X-92.471 Y-48.456 E6.72915
G1 X-91.901 Y-49.112 E6.77251
G1 X-91.524 Y-49.524 E6.80037
G1 X-91.181 Y-49.89 E6.8254
G1 X-90.592 Y-50.5 E6.8677
G1 X-90.21 Y-50.876 E6.89444
G1 X-89.873 Y-51.198 E6.9177
G1 X-89.211 Y-51.816 E6.96288
G1 X-88.741 Y-52.232 E6.99419
G1 X-88.456 Y-52.477 E7.01294
G1 X-87.756 Y-53.064 E7.05852
G1 X-87.336 Y-53.397 E7.08526
G1 X-86.937 Y-53.708 E7.1105
G1 X-86.271 Y-54.207 E7.15202
G1 X-85.806 Y-54.539 E7.18052
G1 X-85.408 Y-54.815 E7.20469
G1 X-84.766 Y-55.248 E7.24332
G1 X-84.21 Y-55.603 E7.27623
G1 X-83.856 Y-55.821 E7.29697
G1 X-83.037 Y-56.311 E7.34459
G1 X-82.584 Y-56.566 E7.37052
G1 X-82.187 Y-56.783 E7.39309
G1 X-81.473 Y-57.163 E7.43345
G1 X-80.859 Y-57.469 E7.46767
G1 X-80.461 Y-57.66 E7.4897
G1 X-79.757 Y-57.987 E7.52842
G1 X-79.145 Y-58.252 E7.5617
G1 X-78.723 Y-58.427 E7.58449
G1 X-77.906 Y-58.755 E7.62841
G1 X-77.378 Y-58.951 E7.65651
G1 X-77.008 Y-59.083 E7.67611
G1 X-76.105 Y-59.391 E7.72371
G1 X-75.534 Y-59.568 E7.75353
G1 X-75.121 Y-59.692 E7.77504
G1 X-74.279 Y-59.929 E7.81868
G1 X-73.74 Y-60.066 E7.84643
G1 X-73.292 Y-60.173 E7.86941
G1 X-72.432 Y-60.368 E7.9134
G1 X-71.868 Y-60.48 E7.94209
G1 X-71.44 Y-60.56 E7.96382
G1 X-70.536 Y-60.714 E8.00957
G1 X-70.024 Y-60.789 E8.03538
G1 X-69.557 Y-60.85 E8.05888
G1 X-68.659 Y-60.955 E8.10399
G1 X-68.11 Y-61.005 E8.13149
G1 X-67.609 Y-61.045 E8.15656
G1 X-66.771 Y-61.098 E8.19845
G1 X-66.229 Y-61.119 E8.22552
G1 X-65.71 Y-61.133 E8.25142
G1 X-64.368 Y-61.15 E8.31838
G1 X64.429 Y-61.15 E14.74408
G1 X65.717 Y-61.133 E14.80835
G1 X66.094 Y-61.122 E14.82716
G1 X67.053 Y-61.082 E14.87505
G1 X67.564 Y-61.049 E14.9006
G1 X68 Y-61.014 E14.92242
G1 X68.844 Y-60.936 E14.96471
G1 X69.378 Y-60.873 E14.99153
G1 X69.904 Y-60.804 E15.018
G1 X70.738 Y-60.683 E15.06004
G1 X71.287 Y-60.588 E15.08784
G1 X71.721 Y-60.508 E15.10986
G1 X72.62 Y-60.328 E15.1556
G1 X73.474 Y-60.13 E15.19934
G1 X74.349 Y-59.909 E15.24436
G1 X74.939 Y-59.744 E15.27493
G1 X75.335 Y-59.628 E15.29551
G1 X76.203 Y-59.358 E15.34086
G1 X76.818 Y-59.148 E15.37329
G1 X77.125 Y-59.041 E15.38951
G1 X78.034 Y-58.705 E15.43785
G1 X78.825 Y-58.385 E15.48042
G1 X79.666 Y-58.026 E15.52605
G1 X80.2 Y-57.782 E15.55534
G1 X80.634 Y-57.577 E15.57928
G1 X81.322 Y-57.24 E15.6175
G1 X81.89 Y-56.944 E15.64946
G1 X82.265 Y-56.741 E15.67073
G1 X83.065 Y-56.294 E15.71645
G1 X83.54 Y-56.014 E15.74396
G1 X83.911 Y-55.788 E15.76563
G1 X84.569 Y-55.375 E15.80439
G1 X85.137 Y-54.999 E15.83838
G1 X85.443 Y-54.79 E15.85686
G1 X86.197 Y-54.258 E15.9029
G1 X86.703 Y-53.883 E15.93432
G1 X86.97 Y-53.68 E15.95106
G1 X87.725 Y-53.087 E15.99895
G1 X88.431 Y-52.497 E16.04486
G1 X89.114 Y-51.902 E16.09005
G1 X89.515 Y-51.534 E16.1172
G1 X89.837 Y-51.232 E16.13923
G1 X90.495 Y-50.594 E16.18495
G1 X90.88 Y-50.203 E16.21233
G1 X91.128 Y-49.944 E16.23022
G1 X91.718 Y-49.313 E16.27332
G1 X92.164 Y-48.811 E16.30682
G1 X92.371 Y-48.57 E16.32267
G1 X93.027 Y-47.789 E16.37355
G1 X93.597 Y-47.065 E16.41952
G1 X94.08 Y-46.425 E16.45953
G1 X94.477 Y-45.871 E16.49353
G1 X94.695 Y-45.558 E16.51256
G1 X95.209 Y-44.797 E16.55837
G1 X95.54 Y-44.278 E16.58909
G1 X95.717 Y-43.993 E16.60582
G1 X96.211 Y-43.172 E16.65363
G1 X96.651 Y-42.39 E16.69839
G1 X97.074 Y-41.599 E16.74314
G1 X97.309 Y-41.132 E16.76923
G1 X97.526 Y-40.686 E16.79397
G1 X97.899 Y-39.891 E16.83778
G1 X98.123 Y-39.38 E16.86562
G1 X98.288 Y-38.988 E16.88684
G1 X98.604 Y-38.214 E16.92855
G1 X98.829 Y-37.621 E16.96019
G1 X98.981 Y-37.203 E16.98238
G1 X99.266 Y-36.38 E17.02583
G1 X99.441 Y-35.834 E17.05444
G1 X99.556 Y-35.454 E17.07424
G1 X99.822 Y-34.534 E17.12202
G1 X100.041 Y-33.68 E17.16601
G1 X100.264 Y-32.726 E17.21489
G1 X100.371 Y-32.213 E17.24103
G1 X100.448 Y-31.815 E17.26125
G1 X100.613 Y-30.904 E17.30744
G1 X100.698 Y-30.349 E17.33546
G1 X100.752 Y-29.963 E17.3549
G1 X100.872 Y-29.011 E17.40277
G1 X100.961 Y-28.079 E17.44948
G1 X101.029 Y-27.169 E17.49501
G1 X101.068 Y-26.256 E17.5406
G1 X101.089 Y-25.302 E17.58821
G1 X101.088 Y-24.725 E17.61699
G1 X101.081 Y-24.332 E17.6366
G1 X101.053 Y-23.416 E17.68232
G1 X101.022 Y-22.867 E17.70976
G1 X100.997 Y-22.486 E17.72881
G1 X100.919 Y-21.537 E17.77631
G1 X100.858 Y-20.975 E17.80451
G1 X100.811 Y-20.584 E17.82416
G1 X100.687 Y-19.669 E17.87023
G1 X100.534 Y-18.744 E17.917
G1 X100.39 Y-17.97 E17.95628
G1 X100.238 Y-17.261 E17.99246
G1 X100.15 Y-16.873 E18.01231
G1 X99.94 Y-16.011 E18.05657
G1 X99.796 Y-15.479 E18.08407
G1 X99.698 Y-15.129 E18.1022
G1 X99.452 Y-14.299 E18.14539
G1 X99.246 Y-13.665 E18.17865
G1 X99.125 Y-13.31 E18.19736
G1 X98.796 Y-12.386 E18.24629
G1 X98.48 Y-11.578 E18.28958
G1 X98.154 Y-10.792 E18.33203
G1 X97.883 Y-10.18 E18.36542
G1 X97.715 Y-9.816 E18.38542
G1 X97.316 Y-8.98 E18.43164
G1 X96.888 Y-8.151 E18.47818
G1 X96.486 Y-7.408 E18.52033
G1 X96.194 Y-6.9 E18.54956
G1 X95.959 Y-6.504 E18.57254
G1 X95.55 Y-5.834 E18.6117
G1 X95.158 Y-5.228 E18.64771
G1 X94.974 Y-4.951 E18.6643
G1 X94.407 Y-4.128 E18.71416
G1 X93.907 Y-3.445 E18.75639
G1 X93.367 Y-2.738 E18.80077
G1 X92.956 Y-2.227 E18.83349
G1 X92.676 Y-1.888 E18.85542
G1 X92.116 Y-1.232 E18.89845
G1 X91.742 Y-.816 E18.92636
G1 X91.448 Y-.497 E18.94801
G1 X90.904 Y0.081 E18.98761
G1 X90.479 Y0.509 E19.0177
G1 X90.119 Y0.862 E19.04285
G1 X89.473 Y1.476 E19.08732
G1 X89.118 Y1.797 E19.11119
G1 X88.576 Y2.277 E19.14732
G1 X86.509 Y4.16 E19.28681
G1 X84.566 Y6.032 E19.42142
G1 X82.63 Y8.007 E19.5594
G1 X80.81 Y9.97 E19.69295
G1 X78.989 Y12.052 E19.83095
G1 X77.282 Y14.116 E19.96457
G1 X75.58 Y16.298 E20.10263
G1 X73.967 Y18.491 E20.23845
G1 X72.427 Y20.714 E20.37337
G1 X70.914 Y23.035 E20.5116
G1 X69.521 Y25.311 E20.64473
G1 X68.133 Y27.728 E20.78378
G1 X66.861 Y30.098 E20.91797
G1 X65.173 Y33.453 E21.10535
G1 X64.677 Y34.372 E21.15745
G1 X64.184 Y35.259 E21.20807
G1 X63.569 Y36.289 E21.26792
G1 X62.962 Y37.273 E21.32561
G1 X62.393 Y38.139 E21.3773
G1 X61.737 Y39.106 E21.4356
G1 X61.102 Y39.987 E21.48978
G1 X60.385 Y40.951 E21.54972
G1 X59.776 Y41.723 E21.59878
G1 X59.08 Y42.584 E21.65401
G1 X59.006 Y42.673 E21.65978
G1 X58.309 Y43.48 E21.71298
G1 X57.623 Y44.255 E21.76462
G1 X56.814 Y45.12 E21.82371
G1 X56.102 Y45.859 E21.8749
G1 X55.265 Y46.679 E21.93336
G1 X54.492 Y47.414 E21.98658
G1 X53.639 Y48.181 E22.04381
G1 X52.857 Y48.864 E22.09561
G1 X52.226 Y49.384 E22.1364
G1 X50.414 Y50.809 E22.25141
G1 X50.17 Y50.991 E22.2666
G1 X49.212 Y51.69 E22.32576
G1 X48.337 Y52.288 E22.37864
G1 X47.453 Y52.877 E22.43163
G1 X46.479 Y53.488 E22.48899
G1 X45.489 Y54.085 E22.54667
G1 X44.527 Y54.629 E22.60181
G1 X43.558 Y55.159 E22.65691
G1 X42.571 Y55.663 E22.7122
G1 X41.528 Y56.176 E22.77019
G1 X40.557 Y56.618 E22.82342
G1 X39.484 Y57.09 E22.8819
G1 X38.474 Y57.499 E22.93626
G1 X37.475 Y57.887 E22.98973
G1 X36.444 Y58.255 E23.04434
G1 X35.386 Y58.615 E23.1001
G1 X34.337 Y58.94 E23.15489
G1 X33.187 Y59.276 E23.21466
G1 X32.14 Y59.549 E23.26864
G1 X31.021 Y59.825 E23.32614
G1 X29.984 Y60.049 E23.37907
G1 X28.871 Y60.271 E23.43569
G1 X27.769 Y60.46 E23.49148
G1 X26.71 Y60.625 E23.54495
G1 X25.603 Y60.767 E23.60063
G1 X24.402 Y60.9 E23.66091
G1 X23.415 Y60.982 E23.71032
G1 X22.236 Y61.063 E23.76928
G1 X21.149 Y61.107 E23.82356
G1 X20.077 Y61.135 E23.87706
G1 X18.948 Y61.133 E23.93338
G1 X17.726 Y61.11 E23.99436
G1 X16.654 Y61.059 E24.0479
G1 X15.568 Y60.992 E24.10219
G1 X14.464 Y60.895 E24.15748
G1 X13.355 Y60.779 E24.21311
G1 X12.247 Y60.632 E24.26887
G1 X11.162 Y60.47 E24.3236
G1 X10.029 Y60.27 E24.381
G1 X8.983 Y60.068 E24.43415
G1 X7.876 Y59.823 E24.49072
G1 X6.863 Y59.584 E24.54264
G1 X5.777 Y59.293 E24.59874
G1 X4.547 Y58.942 E24.66255
G1 X3.562 Y58.63 E24.7141
G1 X2.486 Y58.272 E24.77067
G1 X1.451 Y57.897 E24.82559
G1 X0.465 Y57.522 E24.87822
G1 X-.622 Y57.074 E24.93688
G1 X-1.686 Y56.614 E24.99471
G1 X-2.621 Y56.179 E25.04616
G1 X-3.684 Y55.665 E25.10507
G1 X-4.674 Y55.152 E25.1607
G1 X-5.52 Y54.698 E25.2086
G1 X-6.51 Y54.132 E25.26549
G1 X-7.568 Y53.504 E25.32687
G1 X-8.484 Y52.924 E25.38096
G1 X-9.321 Y52.378 E25.43082
G1 X-10.284 Y51.711 E25.48926
G1 X-11.26 Y51.011 E25.54918
G1 X-11.776 Y50.618 E25.58154
G1 X-14.021 Y48.96 E25.72078
G1 X-16.244 Y47.414 E25.85587
G1 X-18.536 Y45.914 E25.99253
G1 X-20.847 Y44.494 E26.12785
G1 X-23.218 Y43.127 E26.2644
G0 F3600 X-22.993 Y42.794
G1 F900 X-25.449 Y41.47 E26.4036
G1 X-27.857 Y40.257 E26.53811
G1 X-30.379 Y39.075 E26.67707
G1 X-32.841 Y38.007 E26.81096
G1 X-35.429 Y36.968 E26.95009
G1 X-37.953 Y36.038 E27.08429
G1 X-40.579 Y35.153 E27.22254
G1 X-43.197 Y34.353 E27.35912
G1 X-45.829 Y33.629 E27.4953
G1 X-48.017 Y33.087 E27.60776
G1 X-48.792 Y32.879 E27.6478
G1 X-49.463 Y32.68 E27.68271
G1 X-50.24 Y32.425 E27.72351
G1 X-50.331 Y32.394 E27.72831
G1 X-51.083 Y32.121 E27.76822
G1 X-51.759 Y31.854 E27.80448
G1 X-52.612 Y31.488 E27.85079
G1 X-53.28 Y31.177 E27.88755
G1 X-53.363 Y31.137 E27.89215
G1 X-54.17 Y30.73 E27.93724
G1 X-54.716 Y30.436 E27.96818
G1 X-55.532 Y29.963 E28.01524
G1 X-56.251 Y29.517 E28.05745
G1 X-57.001 Y29.019 E28.10236
G1 X-57.484 Y28.679 E28.13183
G1 X-58.328 Y28.046 E28.18447
G1 X-58.868 Y27.614 E28.21897
G1 X-59.522 Y27.061 E28.2617
G1 X-60.099 Y26.544 E28.30035
G1 X-60.761 Y25.913 E28.34597
G1 X-61.222 Y25.448 E28.37864
G1 X-61.285 Y25.383 E28.38316
G1 X-61.881 Y24.744 E28.42675
G1 X-62.859 Y23.633 E28.5006
G1 X-63.606 Y22.756 E28.55807
G1 X-65.431 Y20.73 E28.69411
G1 X-67.327 Y18.744 E28.83109
G1 X-69.262 Y16.827 E28.96699
G1 X-71.268 Y14.949 E29.10408
G1 X-73.308 Y13.145 E29.23994
G1 X-75.433 Y11.369 E29.37811
G1 X-77.551 Y9.699 E29.51267
G1 X-79.803 Y8.026 E29.65264
G1 X-82 Y6.488 E29.78643
G1 X-83.881 Y5.248 E29.89883
G1 X-84.761 Y4.67 E29.95136
G1 X-85.452 Y4.201 E29.99303
G1 X-85.947 Y3.846 E30.02342
G1 X-86.287 Y3.596 E30.04447
G1 X-86.972 Y3.077 E30.08735
G1 X-87.483 Y2.667 E30.12003
G1 X-87.732 Y2.463 E30.13609
G1 X-88.465 Y1.844 E30.18396
G1 X-88.85 Y1.501 E30.20968
G1 X-89.166 Y1.212 E30.23105
G1 X-89.822 Y0.596 E30.27594
G1 X-90.25 Y0.172 E30.306
G1 X-90.523 Y-.104 E30.32537
G1 X-91.152 Y-.761 E30.37074
G1 X-91.523 Y-1.168 E30.39822
G1 X-91.805 Y-1.487 E30.41946
G1 X-92.412 Y-2.193 E30.46591
G1 X-92.73 Y-2.582 E30.49098
G1 X-93.03 Y-2.959 E30.51502
G1 X-93.536 Y-3.612 E30.55623
G1 X-93.941 Y-4.165 E30.59043
G1 X-94.121 Y-4.417 E30.60588
G1 X-94.627 Y-5.146 E30.65015
G1 X-94.957 Y-5.648 E30.68012
G1 X-95.203 Y-6.037 E30.70308
G1 X-95.652 Y-6.764 E30.74571
G1 X-95.946 Y-7.27 E30.77491
G1 X-96.18 Y-7.686 E30.79872
G1 X-96.571 Y-8.403 E30.83947
G1 X-96.843 Y-8.933 E30.86919
G1 X-97.04 Y-9.329 E30.89125
G1 X-97.384 Y-10.044 E30.93084
G1 X-97.633 Y-10.599 E30.96119
G1 X-97.833 Y-11.059 E30.98621
G1 X-98.148 Y-11.817 E31.02716
G1 X-98.373 Y-12.398 E31.05825
G1 X-98.511 Y-12.772 E31.07814
G1 X-98.803 Y-13.593 E31.12161
G1 X-98.997 Y-14.19 E31.15293
G1 X-99.115 Y-14.566 E31.17259
G1 X-99.369 Y-15.422 E31.21713
G1 X-99.503 Y-15.921 E31.24291
G1 X-99.619 Y-16.375 E31.26629
G1 X-99.826 Y-17.239 E31.31061
G1 X-99.948 Y-17.802 E31.33935
G1 X-100.029 Y-18.216 E31.3604
G1 X-100.17 Y-18.974 E31.39887
G1 X-100.286 Y-19.698 E31.43545
G1 X-100.342 Y-20.08 E31.45471
G1 X-100.448 Y-20.887 E31.49532
G1 X-100.513 Y-21.5 E31.52607
G1 X-100.551 Y-21.91 E31.54661
G1 X-100.622 Y-22.817 E31.592
G1 X-100.655 Y-23.456 E31.62392
G1 X-100.667 Y-23.79 E31.6406
G1 X-100.69 Y-24.722 E31.68711
G1 X-100.69 Y-25.277 E31.7148
G1 X-100.684 Y-25.709 E31.73635
