;FLAVOR:Marlin
;TIME:11508
;Filament used: 15.8439m
;Layer height: 0.3
;MINX:16.41
;MINY:56.35
;MINZ:0.3
;MAXX:218.589
;MAXY:178.635
;MAXZ:6
;MKSPREVIEWPROCESSED
; Postprocessed by [MKS WiFi plugin](https://github.com/Jeredian/mks-wifi-plugin)
; simage=0
; gimage=0
;Generated with Cura_SteamEngine 4.13.1
M140 S60
M105
M190 S60
M104 S200
M105
M109 S200
M82 ;absolute extrusion mode
G21 ;metric values
G90 ;absolute positioning
M82 ;set extruder to absolute mode
M107 ;start with the fan off
G28 X0 Y0 ;move X/Y to min endstops
G28 Z0 ;move Z to min endstops
G1 Z15.0 F60 ;move the platform down 15mm
G92 E0 ;zero the extruded length
G1 F200 E3 ;extrude 3mm of feed stock
G92 E0 ;zero the extruded length again
G1 F60
M117 Printing...
G5
G92 E0
G92 E0
G1 F3600 E-6
;LAYER_COUNT:20
;LAYER:0
M107
M204 S300
M205 X8.18 Y8.18
G0 F1200 X34.463 Y61.189 Z0.3
M205 X3 Y3
;TYPE:SKIRT
G1 F3600 E0
G1 F1200 X34.916 Y60.934 E0.02593
G1 X35.313 Y60.717 E0.04851
G1 X36.027 Y60.337 E0.08886
G1 X36.641 Y60.031 E0.12309
G1 X37.039 Y59.84 E0.14511
G1 X37.743 Y59.513 E0.18384
G1 X38.355 Y59.248 E0.21711
G1 X38.777 Y59.073 E0.2399
G1 X39.594 Y58.745 E0.28382
G1 X40.122 Y58.549 E0.31192
G1 X40.492 Y58.417 E0.33152
G1 X41.395 Y58.109 E0.37912
G1 X41.966 Y57.932 E0.40894
G1 X42.379 Y57.808 E0.43046
G1 X43.221 Y57.571 E0.4741
G1 X43.76 Y57.434 E0.50184
G1 X44.208 Y57.327 E0.52482
G1 X45.068 Y57.132 E0.56882
G1 X45.632 Y57.02 E0.59751
G1 X46.06 Y56.94 E0.61923
G1 X46.964 Y56.786 E0.66498
G1 X47.476 Y56.711 E0.6908
G1 X47.943 Y56.65 E0.71429
G1 X48.841 Y56.545 E0.7594
G1 X49.39 Y56.495 E0.7869
G1 X49.891 Y56.455 E0.81198
G1 X50.729 Y56.402 E0.85387
G1 X51.271 Y56.381 E0.88093
G1 X51.79 Y56.367 E0.90683
G1 X53.132 Y56.35 E0.97379
G1 X181.929 Y56.35 E7.3995
G1 X183.217 Y56.367 E7.46376
G1 X183.594 Y56.378 E7.48258
G1 X184.553 Y56.418 E7.53046
G1 X185.064 Y56.451 E7.55601
G1 X185.5 Y56.486 E7.57783
G1 X186.344 Y56.564 E7.62012
G1 X186.878 Y56.627 E7.64695
G1 X187.404 Y56.696 E7.67341
G1 X188.238 Y56.817 E7.71546
G1 X188.787 Y56.912 E7.74325
G1 X189.221 Y56.992 E7.76527
G1 X190.12 Y57.172 E7.81101
G1 X190.974 Y57.37 E7.85475
G1 X191.849 Y57.591 E7.89977
G1 X192.439 Y57.756 E7.93034
G1 X192.835 Y57.872 E7.95093
G1 X193.703 Y58.142 E7.99628
G1 X194.318 Y58.352 E8.0287
G1 X194.625 Y58.459 E8.04492
G1 X195.534 Y58.795 E8.09327
G1 X196.325 Y59.115 E8.13584
G1 X197.166 Y59.474 E8.18146
G1 X197.7 Y59.718 E8.21075
G1 X198.134 Y59.923 E8.2347
G1 X198.822 Y60.26 E8.27292
G1 X199.39 Y60.556 E8.30487
G1 X199.765 Y60.759 E8.32615
G1 X200.565 Y61.206 E8.37187
G1 X201.04 Y61.486 E8.39937
G1 X201.411 Y61.712 E8.42105
G1 X202.069 Y62.125 E8.45981
G1 X202.637 Y62.501 E8.49379
G1 X202.943 Y62.71 E8.51228
G1 X203.697 Y63.242 E8.55831
G1 X204.203 Y63.617 E8.58974
G1 X204.47 Y63.82 E8.60647
G1 X205.225 Y64.413 E8.65437
G1 X205.931 Y65.003 E8.70027
G1 X206.614 Y65.598 E8.74546
G1 X207.015 Y65.966 E8.77261
G1 X207.337 Y66.268 E8.79464
G1 X207.995 Y66.906 E8.84036
G1 X208.38 Y67.297 E8.86774
G1 X208.628 Y67.556 E8.88563
G1 X209.218 Y68.187 E8.92873
G1 X209.664 Y68.689 E8.96223
G1 X209.871 Y68.93 E8.97808
G1 X210.527 Y69.711 E9.02897
G1 X211.097 Y70.435 E9.07494
G1 X211.58 Y71.075 E9.11494
G1 X211.977 Y71.629 E9.14894
G1 X212.195 Y71.942 E9.16797
G1 X212.709 Y72.703 E9.21379
G1 X213.04 Y73.222 E9.2445
G1 X213.217 Y73.507 E9.26124
G1 X213.711 Y74.328 E9.30904
G1 X214.151 Y75.11 E9.35381
G1 X214.574 Y75.901 E9.39856
G1 X214.809 Y76.368 E9.42464
G1 X215.026 Y76.814 E9.44938
G1 X215.399 Y77.609 E9.4932
G1 X215.623 Y78.12 E9.52103
G1 X215.788 Y78.512 E9.54225
G1 X216.104 Y79.286 E9.58396
G1 X216.329 Y79.879 E9.6156
G1 X216.481 Y80.297 E9.63779
G1 X216.766 Y81.12 E9.68124
G1 X216.941 Y81.666 E9.70985
G1 X217.056 Y82.046 E9.72966
G1 X217.322 Y82.966 E9.77744
G1 X217.541 Y83.82 E9.82142
G1 X217.764 Y84.774 E9.8703
G1 X217.871 Y85.287 E9.89644
G1 X217.948 Y85.685 E9.91667
G1 X218.113 Y86.596 E9.96286
G1 X218.198 Y87.151 E9.99087
G1 X218.252 Y87.537 E10.01031
G1 X218.372 Y88.489 E10.05819
G1 X218.461 Y89.421 E10.10489
G1 X218.529 Y90.331 E10.15042
G1 X218.568 Y91.244 E10.19601
G1 X218.589 Y92.198 E10.24362
G1 X218.588 Y92.775 E10.27241
G1 X218.581 Y93.168 E10.29202
G1 X218.553 Y94.084 E10.33774
G1 X218.522 Y94.633 E10.36517
G1 X218.497 Y95.014 E10.38422
G1 X218.419 Y95.963 E10.43172
G1 X218.358 Y96.525 E10.45993
G1 X218.311 Y96.916 E10.47957
G1 X218.187 Y97.831 E10.52564
G1 X218.034 Y98.756 E10.57242
G1 X217.89 Y99.53 E10.61169
G1 X217.738 Y100.239 E10.64787
G1 X217.65 Y100.627 E10.66772
G1 X217.44 Y101.489 E10.71198
G1 X217.296 Y102.021 E10.73948
G1 X217.198 Y102.371 E10.75761
G1 X216.952 Y103.201 E10.8008
G1 X216.746 Y103.835 E10.83406
G1 X216.625 Y104.19 E10.85277
G1 X216.296 Y105.114 E10.90171
G1 X215.98 Y105.922 E10.94499
G1 X215.654 Y106.708 E10.98744
G1 X215.383 Y107.32 E11.02083
G1 X215.215 Y107.684 E11.04084
G1 X214.816 Y108.52 E11.08705
G1 X214.388 Y109.349 E11.1336
G1 X213.986 Y110.092 E11.17574
G1 X213.694 Y110.6 E11.20498
G1 X213.459 Y110.996 E11.22795
G1 X213.05 Y111.666 E11.26711
G1 X212.658 Y112.272 E11.30312
G1 X212.474 Y112.549 E11.31971
G1 X211.907 Y113.372 E11.36957
G1 X211.407 Y114.055 E11.4118
G1 X210.867 Y114.762 E11.45618
G1 X210.456 Y115.273 E11.4889
G1 X210.176 Y115.612 E11.51084
G1 X209.616 Y116.268 E11.55387
G1 X209.242 Y116.684 E11.58178
G1 X208.948 Y117.003 E11.60342
G1 X208.404 Y117.581 E11.64302
G1 X207.979 Y118.009 E11.67311
G1 X207.619 Y118.362 E11.69827
G1 X206.973 Y118.976 E11.74273
G1 X206.618 Y119.297 E11.76661
G1 X206.076 Y119.777 E11.80273
G1 X204.009 Y121.66 E11.94223
G1 X202.066 Y123.532 E12.07683
G1 X200.13 Y125.507 E12.21481
G1 X198.31 Y127.47 E12.34836
G1 X196.489 Y129.552 E12.48636
G1 X194.782 Y131.616 E12.61999
G1 X193.08 Y133.798 E12.75805
G1 X191.467 Y135.991 E12.89386
G1 X189.927 Y138.214 E13.02878
G1 X188.414 Y140.535 E13.16701
G1 X187.021 Y142.811 E13.30014
G1 X185.633 Y145.228 E13.43919
G1 X184.361 Y147.598 E13.57339
G1 X182.673 Y150.953 E13.76076
G1 X182.177 Y151.872 E13.81286
G1 X181.684 Y152.759 E13.86349
G1 X181.069 Y153.789 E13.92334
G1 X180.462 Y154.773 E13.98102
G1 X179.893 Y155.639 E14.03272
G1 X179.237 Y156.606 E14.09101
G1 X178.602 Y157.487 E14.14519
G1 X177.885 Y158.451 E14.20513
G1 X177.276 Y159.223 E14.25419
G1 X176.58 Y160.084 E14.30942
G1 X176.506 Y160.173 E14.3152
G1 X175.809 Y160.98 E14.3684
G1 X175.123 Y161.755 E14.42003
G1 X174.314 Y162.62 E14.47912
G1 X173.602 Y163.359 E14.53032
G1 X172.765 Y164.179 E14.58878
G1 X171.992 Y164.914 E14.64199
G1 X171.139 Y165.681 E14.69922
G1 X170.357 Y166.364 E14.75102
G1 X169.726 Y166.884 E14.79182
G1 X167.914 Y168.309 E14.90682
G1 X167.67 Y168.491 E14.92201
G1 X166.712 Y169.19 E14.98117
G1 X165.837 Y169.788 E15.03405
G1 X164.953 Y170.377 E15.08704
G1 X163.979 Y170.988 E15.14441
G1 X162.989 Y171.585 E15.20208
G1 X162.027 Y172.129 E15.25722
G1 X161.058 Y172.659 E15.31232
G1 X160.071 Y173.163 E15.36761
G1 X159.028 Y173.676 E15.4256
G1 X158.057 Y174.118 E15.47883
G1 X156.984 Y174.59 E15.53731
G1 X155.974 Y174.999 E15.59168
G1 X154.975 Y175.387 E15.64514
G1 X153.944 Y175.755 E15.69976
G1 X152.886 Y176.115 E15.75551
G1 X151.837 Y176.44 E15.8103
G1 X150.687 Y176.776 E15.87007
G1 X149.64 Y177.049 E15.92406
G1 X148.521 Y177.325 E15.98156
G1 X147.484 Y177.549 E16.03449
G1 X146.371 Y177.771 E16.09111
G1 X145.269 Y177.96 E16.14689
G1 X144.21 Y178.125 E16.20036
G1 X143.103 Y178.267 E16.25604
G1 X141.902 Y178.4 E16.31633
G1 X140.915 Y178.482 E16.36574
G1 X139.736 Y178.563 E16.4247
G1 X138.649 Y178.607 E16.47897
G1 X137.577 Y178.635 E16.53247
G1 X136.448 Y178.633 E16.5888
G1 X135.226 Y178.61 E16.64977
G1 X134.154 Y178.559 E16.70332
G1 X133.068 Y178.492 E16.7576
G1 X131.964 Y178.395 E16.81289
G1 X130.855 Y178.279 E16.86852
G1 X129.747 Y178.132 E16.92429
G1 X128.662 Y177.97 E16.97902
G1 X127.529 Y177.77 E17.03642
G1 X126.483 Y177.568 E17.08956
G1 X125.376 Y177.323 E17.14613
G1 X124.363 Y177.084 E17.19806
G1 X123.277 Y176.793 E17.25415
G1 X122.047 Y176.442 E17.31796
G1 X121.062 Y176.13 E17.36951
G1 X119.986 Y175.772 E17.42609
G1 X118.951 Y175.397 E17.48101
G1 X117.965 Y175.022 E17.53364
G1 X116.878 Y174.574 E17.59229
G1 X115.814 Y174.114 E17.65012
G1 X114.879 Y173.679 E17.70157
G1 X113.816 Y173.165 E17.76048
G1 X112.826 Y172.652 E17.81611
G1 X111.98 Y172.198 E17.86401
G1 X110.99 Y171.632 E17.9209
G1 X109.932 Y171.004 E17.98229
G1 X109.016 Y170.424 E18.03638
G1 X108.179 Y169.878 E18.08623
G1 X107.216 Y169.211 E18.14468
G1 X106.24 Y168.511 E18.2046
G1 X105.724 Y168.118 E18.23696
G1 X103.479 Y166.46 E18.3762
G1 X101.256 Y164.914 E18.51128
G1 X98.964 Y163.414 E18.64794
G1 X96.653 Y161.994 E18.78327
G1 X94.282 Y160.627 E18.91981
G1 X91.875 Y159.329 E19.05624
G1 X89.459 Y158.112 E19.19121
G1 X86.971 Y156.946 E19.32829
G1 X84.499 Y155.874 E19.46271
G1 X81.951 Y154.851 E19.5997
G1 X79.397 Y153.909 E19.73551
G1 X76.813 Y153.039 E19.87153
G1 X74.185 Y152.235 E20.00864
G1 X71.548 Y151.51 E20.14509
G1 X69.38 Y150.973 E20.25652
G1 X68.594 Y150.762 E20.29712
G1 X67.923 Y150.563 E20.33204
G1 X67.135 Y150.305 E20.3734
G1 X67.033 Y150.27 E20.37878
G1 X66.181 Y149.959 E20.42403
G1 X65.499 Y149.687 E20.46066
G1 X64.627 Y149.31 E20.50806
G1 X63.957 Y148.995 E20.545
G1 X63.14 Y148.582 E20.59067
G1 X62.594 Y148.288 E20.62161
G1 X62.491 Y148.23 E20.6275
G1 X61.767 Y147.809 E20.66929
G1 X61.116 Y147.406 E20.70749
G1 X61.028 Y147.35 E20.71269
G1 X60.269 Y146.846 E20.75814
G1 X59.699 Y146.443 E20.79297
G1 X58.922 Y145.859 E20.84146
G1 X58.453 Y145.485 E20.87139
G1 X57.72 Y144.866 E20.91926
G1 X57.637 Y144.794 E20.92474
G1 X57.052 Y144.266 E20.96405
G1 X56.388 Y143.63 E21.00993
G1 X55.993 Y143.23 E21.03797
G1 X55.326 Y142.516 E21.08672
G1 X54.337 Y141.393 E21.16138
G1 X53.611 Y140.54 E21.21726
G1 X51.764 Y138.491 E21.35489
G1 X49.885 Y136.521 E21.49071
G1 X47.965 Y134.621 E21.62547
G1 X45.959 Y132.742 E21.7626
G1 X43.916 Y130.935 E21.89867
G1 X41.825 Y129.188 E22.03461
G1 X39.692 Y127.506 E22.17013
G1 X37.496 Y125.875 E22.3066
G1 X35.255 Y124.306 E22.44308
G1 X33.399 Y123.082 E22.554
G1 X32.515 Y122.502 E22.60675
G1 X31.815 Y122.026 E22.64898
G1 X31.317 Y121.669 E22.67955
G1 X30.972 Y121.415 E22.70093
G1 X30.278 Y120.889 E22.74437
G1 X29.763 Y120.476 E22.77731
G1 X29.51 Y120.269 E22.79362
G1 X28.769 Y119.643 E22.84201
G1 X28.381 Y119.296 E22.86798
G1 X28.06 Y119.004 E22.88963
G1 X27.397 Y118.38 E22.93505
G1 X26.966 Y117.954 E22.96529
G1 X26.688 Y117.673 E22.98501
G1 X26.053 Y117.009 E23.03084
G1 X25.677 Y116.597 E23.05867
G1 X25.392 Y116.274 E23.08016
G1 X24.778 Y115.56 E23.12714
G1 X24.457 Y115.168 E23.15242
G1 X24.153 Y114.786 E23.17678
G1 X23.642 Y114.125 E23.21846
G1 X23.234 Y113.567 E23.25295
G1 X23.051 Y113.311 E23.26865
G1 X22.492 Y112.505 E23.31758
G1 X22.205 Y112.066 E23.34375
G1 X21.957 Y111.673 E23.36693
G1 X21.502 Y110.937 E23.4101
G1 X21.206 Y110.427 E23.43952
G1 X20.969 Y110.006 E23.46363
G1 X20.573 Y109.28 E23.50488
G1 X20.298 Y108.745 E23.5349
G1 X20.1 Y108.345 E23.55716
G1 X19.756 Y107.63 E23.59675
G1 X19.5 Y107.06 E23.62792
G1 X19.298 Y106.595 E23.65322
G1 X19.014 Y105.915 E23.68998
G1 X18.752 Y105.241 E23.72606
G1 X18.612 Y104.862 E23.74621
G1 X18.317 Y104.031 E23.79021
G1 X18.121 Y103.43 E23.82175
G1 X18.002 Y103.048 E23.84171
G1 X17.745 Y102.182 E23.88678
G1 X17.61 Y101.678 E23.91281
G1 X17.492 Y101.219 E23.93645
G1 X17.301 Y100.427 E23.9771
G1 X17.16 Y99.775 E24.01038
G1 X17.078 Y99.357 E24.03163
G1 X16.92 Y98.505 E24.07486
G1 X16.818 Y97.86 E24.10744
G1 X16.762 Y97.472 E24.127
G1 X16.645 Y96.574 E24.17218
G1 X16.589 Y96.037 E24.19911
G1 X16.55 Y95.621 E24.21996
G1 X16.479 Y94.705 E24.26579
G1 X16.445 Y94.059 E24.29807
G1 X16.433 Y93.72 E24.31499
G1 X16.41 Y92.778 E24.362
G1 X16.41 Y92.218 E24.38994
G1 X16.416 Y91.78 E24.41179
G1 X16.443 Y90.855 E24.45796
G1 X16.472 Y90.342 E24.4836
G1 X16.504 Y89.858 E24.5078
G1 X16.575 Y88.984 E24.55154
G1 X16.628 Y88.484 E24.57663
G1 X16.691 Y87.962 E24.60286
G1 X16.809 Y87.087 E24.64691
G1 X16.893 Y86.565 E24.67329
G1 X16.98 Y86.064 E24.69866
G1 X17.143 Y85.203 E24.74238
G1 X17.249 Y84.711 E24.76748
G1 X17.374 Y84.161 E24.79562
G1 X17.563 Y83.393 E24.83508
G1 X17.718 Y82.818 E24.86479
G1 X17.84 Y82.394 E24.88681
G1 X18.111 Y81.495 E24.93365
G1 X18.414 Y80.593 E24.98112
G1 X18.731 Y79.711 E25.02788
G1 X18.925 Y79.211 E25.05464
G1 X19.086 Y78.809 E25.07624
G1 X19.415 Y78.026 E25.11862
G1 X19.667 Y77.467 E25.14921
G1 X19.888 Y76.992 E25.17534
G1 X20.213 Y76.317 E25.21272
G1 X20.491 Y75.777 E25.24302
G1 X20.723 Y75.342 E25.26762
G1 X21.15 Y74.568 E25.31172
G1 X21.451 Y74.053 E25.34148
G1 X21.683 Y73.669 E25.36386
G1 X22.154 Y72.912 E25.40834
G1 X22.436 Y72.484 E25.43391
G1 X22.685 Y72.112 E25.45625
G1 X23.212 Y71.359 E25.5021
G1 X23.587 Y70.85 E25.53364
G1 X23.84 Y70.516 E25.55455
G1 X24.365 Y69.844 E25.59709
G1 X24.719 Y69.412 E25.62496
G1 X25.029 Y69.044 E25.64896
G1 X25.599 Y68.388 E25.69232
G1 X25.976 Y67.976 E25.72018
G1 X26.319 Y67.61 E25.7452
G1 X26.908 Y67 E25.78751
G1 X27.29 Y66.624 E25.81425
G1 X27.627 Y66.302 E25.8375
G1 X28.289 Y65.684 E25.88269
G1 X28.759 Y65.268 E25.914
G1 X29.044 Y65.023 E25.93275
G1 X29.744 Y64.436 E25.97833
G1 X30.164 Y64.103 E26.00507
G1 X30.563 Y63.792 E26.03031
G1 X31.229 Y63.293 E26.07183
G1 X31.694 Y62.961 E26.10033
G1 X32.092 Y62.685 E26.12449
G1 X32.734 Y62.252 E26.16313
G1 X33.29 Y61.897 E26.19604
G1 X33.644 Y61.679 E26.21678
G1 X34.463 Y61.189 E26.2644
M205 X8.18 Y8.18
G0 X34.66 Y61.537
M205 X3 Y3
G1 X35.108 Y61.285 E26.29004
G1 X35.501 Y61.07 E26.31239
G1 X36.296 Y60.648 E26.35729
G1 X36.814 Y60.392 E26.38612
G1 X37.208 Y60.203 E26.40792
G1 X37.991 Y59.84 E26.45098
G1 X38.509 Y59.617 E26.47911
G1 X38.926 Y59.444 E26.50164
G1 X39.733 Y59.12 E26.54502
G1 X40.257 Y58.926 E26.5729
G1 X40.622 Y58.795 E26.59225
G1 X41.514 Y58.491 E26.63926
G1 X42.08 Y58.315 E26.66883
G1 X42.488 Y58.193 E26.69008
G1 X43.236 Y57.981 E26.72887
G1 X43.853 Y57.823 E26.76064
G1 X44.296 Y57.717 E26.78337
G1 X45.146 Y57.525 E26.82684
G1 X45.706 Y57.413 E26.85534
G1 X46.128 Y57.334 E26.87675
G1 X46.942 Y57.194 E26.91796
G1 X47.529 Y57.108 E26.94756
G1 X47.99 Y57.047 E26.97076
G1 X48.878 Y56.943 E27.01537
G1 X49.422 Y56.894 E27.04262
G1 X49.917 Y56.854 E27.06739
G1 X50.744 Y56.801 E27.10874
G1 X51.282 Y56.781 E27.13559
G1 X51.795 Y56.767 E27.1612
G1 X53.137 Y56.75 E27.22816
G1 X181.923 Y56.75 E33.65332
G1 X183.206 Y56.767 E33.71733
G1 X183.578 Y56.778 E33.7359
G1 X184.527 Y56.817 E33.78328
G1 X185.033 Y56.85 E33.80858
G1 X185.463 Y56.885 E33.83011
G1 X186.393 Y56.972 E33.87671
G1 X187.303 Y57.086 E33.92246
G1 X188.17 Y57.211 E33.96616
G1 X188.714 Y57.305 E33.99371
G1 X189.143 Y57.384 E34.01547
G1 X190.032 Y57.562 E34.0607
G1 X190.881 Y57.759 E34.10418
G1 X191.834 Y58.001 E34.15324
G1 X192.356 Y58.149 E34.18031
G1 X192.717 Y58.254 E34.19906
G1 X193.574 Y58.521 E34.24385
G1 X194.186 Y58.729 E34.27609
G1 X194.487 Y58.835 E34.29201
G1 X195.386 Y59.167 E34.33983
G1 X196.173 Y59.485 E34.38217
G1 X197.008 Y59.842 E34.42748
G1 X197.529 Y60.079 E34.45604
G1 X197.958 Y60.282 E34.47971
G1 X198.721 Y60.657 E34.52213
G1 X199.2 Y60.908 E34.54911
G1 X199.57 Y61.109 E34.57012
G1 X200.362 Y61.551 E34.61537
G1 X200.832 Y61.828 E34.64258
G1 X201.198 Y62.051 E34.66397
G1 X201.923 Y62.507 E34.7067
G1 X202.412 Y62.831 E34.73596
G1 X202.713 Y63.037 E34.75416
G1 X203.459 Y63.564 E34.79973
G1 X203.961 Y63.935 E34.83087
G1 X204.223 Y64.135 E34.84731
G1 X204.972 Y64.722 E34.89479
G1 X205.673 Y65.308 E34.94037
G1 X206.343 Y65.893 E34.98475
G1 X206.741 Y66.258 E35.01169
G1 X207.059 Y66.556 E35.03343
G1 X207.71 Y67.187 E35.07866
G1 X208.09 Y67.573 E35.10569
G1 X208.335 Y67.829 E35.12337
G1 X208.983 Y68.523 E35.17074
G1 X209.361 Y68.951 E35.19923
G1 X209.565 Y69.187 E35.21479
G1 X210.214 Y69.961 E35.26518
G1 X210.781 Y70.681 E35.3109
G1 X211.261 Y71.316 E35.35062
G1 X211.649 Y71.858 E35.38387
G1 X211.864 Y72.166 E35.40261
G1 X212.323 Y72.844 E35.44346
G1 X212.7 Y73.434 E35.47839
G1 X212.874 Y73.713 E35.4948
G1 X213.363 Y74.526 E35.54213
G1 X213.801 Y75.304 E35.58667
G1 X214.261 Y76.167 E35.63546
G1 X214.645 Y76.946 E35.67879
G1 X214.997 Y77.691 E35.7199
